X:2
T:I Only Have Eyes For You
C:Harry Warren & Al Dubin
L:1/4
M:C
I:linebreak $
K:C
"C#o" D E S|:"Dm" G2"D#7" (3z F E |"Dm" D2"G7" (3z D E |"Em" (3G A G"Eb7" (3F G F |$
"Dm" D2"Db7" (3z G A |"C" (3B d c"Dm6" B2 Ox/||1"Em" z2"Fm" c2 |"Em" B4 "A7" x4|$
"Ebm" _B2"Ab7" z _A :|2"Em" z2"A#7" c2 |"A7" ^c4 |"Em" z4 "Eb7" x4||$"Dm" z d c A |
"Dø" G F"Db7" E D |"C" G2"Dm" G2 |"Em" z4 "Am" x4|$"Gbø" z d c _A |"Fm" G F"Bb7" E D |
"Em" G4 "A7" x4|"Ebm" _B2"Ab7" z "_D.S. al Coda" _A ||$Ox/"Em" z2"Fm" c2 |"Bm" e4 "E7" x4|
"Eø" z2"Eb7" f e |"Dm" (3d e d c2 |"Db7" z2 d2 |"C6" c4 |]

